exports/total-GDP-in-the-uk-since-1270_v1_850x600.svg

<svg xmlns="http://www.w3.org/2000/svg" version="1.1" style="background-color:#fff;-webkit-font-smoothing:antialiased" width="850" height="600" font-family="'Helvetica Neue',Helvetica,Arial,sans-serif" font-size="18" text-rendering="optimizeLegibility"><g class="ChartTab"><g class="HeaderView"><g opacity=".8" transform="matrix(.31 0 0 .31 770 15)"><a xmlns:xlink="http://www.w3.org/1999/xlink" xlink:href="https://ourworldindata.org" target="_blank"><g><path fill="#1B2543" d="M0 0h211.2v130.1H0z"/><path fill="#E63912" d="M0 112.2h211.2v17.9H0z"/><g><path fill="none" d="M1.2 12.3h210.2v99.2H1.2z"/><path fill="#FFF" d="M37.8 32.2c0 12.7-7.7 19.4-17.1 19.4-9.7 0-16.6-7.5-16.6-18.7 0-11.7 7.3-19.3 17.1-19.3 10.1.1 16.6 7.7 16.6 18.6zm-28.6.6c0 7.9 4.3 14.9 11.8 14.9 7.5 0 11.8-6.9 11.8-15.3 0-7.3-3.8-14.9-11.8-14.9-7.9 0-11.8 7.3-11.8 15.3zM62.7 43.8c0 2.7.1 5.1.2 7.2h-4.3l-.3-4.3h-.1c-1.3 2.1-4 4.9-8.8 4.9-4.2 0-9.1-2.3-9.1-11.6V24.6h4.8v14.6c0 5 1.5 8.4 5.9 8.4 3.2 0 5.5-2.2 6.3-4.4.3-.7.4-1.6.4-2.5V24.6h4.8v19.2zM67.3 32.8c0-3.1-.1-5.8-.2-8.2h4.2l.2 5.2h.2c1.2-3.5 4.1-5.8 7.3-5.8.5 0 .9.1 1.4.2v4.5c-.5-.1-1-.2-1.6-.2-3.4 0-5.8 2.6-6.5 6.2-.1.7-.2 1.4-.2 2.2V51h-4.8V32.8zM95.4 51L86 14.2h5l4.4 18.6c1.1 4.6 2.1 9.2 2.7 12.7h.1c.6-3.7 1.8-8 3-12.8l4.9-18.5h5l4.5 18.7c1 4.4 2 8.7 2.6 12.6h.1c.8-4 1.8-8.1 3-12.7l4.9-18.5h4.9L120.6 51h-5L111 31.9c-1.1-4.7-1.9-8.3-2.4-12h-.1c-.7 3.7-1.5 7.3-2.8 12L100.4 51h-5zM154.9 37.6c0 9.8-6.8 14-13.2 14-7.2 0-12.7-5.2-12.7-13.6 0-8.8 5.8-14 13.1-14 7.7 0 12.8 5.5 12.8 13.6zm-21 .3c0 5.8 3.3 10.1 8 10.1 4.6 0 8-4.3 8-10.3 0-4.5-2.2-10.1-7.9-10.1s-8.1 5.2-8.1 10.3zM158.2 32.8c0-3.1-.1-5.8-.2-8.2h4.2l.2 5.2h.2c1.2-3.5 4.1-5.8 7.3-5.8.5 0 .9.1 1.4.2v4.5c-.5-.1-1-.2-1.6-.2-3.4 0-5.8 2.6-6.5 6.2-.1.7-.2 1.4-.2 2.2V51h-4.8V32.8zM173.5 12.3h4.8V51h-4.8V12.3zM206.5 12.3v31.9c0 2.3.1 5 .2 6.8h-4.3l-.2-4.6h-.2c-1.5 2.9-4.7 5.2-9 5.2-6.4 0-11.3-5.4-11.3-13.4-.1-8.8 5.4-14.2 11.9-14.2 4 0 6.8 1.9 8 4h.1V12.3h4.8zm-4.8 23.1c0-.6-.1-1.4-.2-2a7 7 0 00-6.9-5.6c-5 0-7.9 4.4-7.9 10.2 0 5.3 2.6 9.8 7.8 9.8 3.2 0 6.2-2.1 7.1-5.7.2-.7.2-1.3.2-2.1v-4.6zM42.8 64c.1 1.6-1.1 2.9-3.1 2.9-1.7 0-2.9-1.3-2.9-2.9 0-1.7 1.3-3 3-3 1.9 0 3 1.3 3 3zm-5.4 33.8V71.4h4.8v26.4h-4.8zM47.5 78.6c0-2.7-.1-5-.2-7.1h4.3l.3 4.4h.1c1.3-2.5 4.4-5 8.8-5 3.7 0 9.4 2.2 9.4 11.2v15.8h-4.8V82.6c0-4.3-1.6-7.8-6.1-7.8-3.2 0-5.6 2.2-6.5 4.9-.2.6-.3 1.4-.3 2.2v15.9h-4.8V78.6zM84 61.6c2.9-.4 6.3-.8 10.1-.8 6.8 0 11.7 1.6 14.9 4.6 3.3 3 5.2 7.3 5.2 13.2 0 6-1.9 10.9-5.3 14.3-3.4 3.4-9.1 5.3-16.3 5.3-3.4 0-6.2-.2-8.6-.4V61.6zm4.8 32.5c1.2.2 3 .3 4.8.3 10.2 0 15.7-5.7 15.7-15.6.1-8.7-4.9-14.2-14.9-14.2-2.5 0-4.3.2-5.6.5v29zM132.1 97.8l-.4-3.3h-.2a9.79 9.79 0 01-8.1 3.9c-5.4 0-8.1-3.8-8.1-7.6 0-6.4 5.7-9.9 15.9-9.8v-.5c0-2.2-.6-6.1-6-6.1-2.5 0-5 .8-6.9 2l-1.1-3.2c2.2-1.4 5.4-2.3 8.7-2.3 8.1 0 10.1 5.5 10.1 10.8v9.9c0 2.3.1 4.5.4 6.3h-4.3zm-.7-13.4c-5.3-.1-11.2.8-11.2 5.9 0 3.1 2.1 4.6 4.5 4.6 3.4 0 5.6-2.2 6.4-4.4.2-.5.3-1 .3-1.5v-4.6zM146.6 63.9v7.6h6.9v3.7h-6.9v14.2c0 3.3.9 5.1 3.6 5.1 1.3 0 2.2-.2 2.8-.3l.2 3.6c-.9.4-2.4.7-4.3.7-2.2 0-4-.7-5.2-2-1.4-1.4-1.9-3.8-1.9-6.9V75.1h-4.1v-3.7h4.1v-6.3l4.8-1.2zM171.4 97.8l-.4-3.3h-.2a9.79 9.79 0 01-8.1 3.9c-5.4 0-8.1-3.8-8.1-7.6 0-6.4 5.7-9.9 15.9-9.8v-.5c0-2.2-.6-6.1-6-6.1-2.5 0-5 .8-6.9 2l-1.1-3.2c2.2-1.4 5.4-2.3 8.7-2.3 8.1 0 10.1 5.5 10.1 10.8v9.9c0 2.3.1 4.5.4 6.3h-4.3zm-.7-13.4c-5.3-.1-11.2.8-11.2 5.9 0 3.1 2.1 4.6 4.5 4.6 3.4 0 5.6-2.2 6.4-4.4.2-.5.3-1 .3-1.5v-4.6z"/></g></g></a></g><a href="https://ourworldindata.org/grapher/total-GDP-in-the-uk-since-1270" target="_blank"><text font-size="27" x="15" y="36.6" fill="#555"><tspan x="15" y="36.6">Total economic output in England since 1270, England</tspan></text></a><text font-size="14.4" x="15" y="55.5" fill="#666"><tspan x="15" y="55.52">Output is adjusted for inflation and measured in British Pounds in 2013 prices</tspan></text></g><g class="LineChart"><defs><clipPath id="a"><path d="M87.6 0h830v928.8h-830z"/></clipPath></defs><g class="AxisBoxView"><g class="HorizontalAxis" fill="#666" text-anchor="middle" font-size="16.2"><text x="97.6" y="542.8">1270</text><text x="224.4" y="542.8">1400</text><text x="321.9" y="542.8">1500</text><text x="419.4" y="542.8">1600</text><text x="516.9" y="542.8">1700</text><text x="614.4" y="542.8">1800</text><text x="711.9" y="542.8">1900</text><text x="825" y="542.8">2016</text></g><g class="VerticalAxis" fill="#666" dominant-baseline="middle" text-anchor="end" font-size="16.2"><text x="92.6" y="521.6">£0</text><text x="92.6" y="468.6">£200 billion</text><text x="92.6" y="415.6">£400 billion</text><text x="92.6" y="362.6">£600 billion</text><text x="92.6" y="309.6">£800 billion</text><text x="92.6" y="256.5">£1 trillion</text><text x="92.6" y="203.5">£1.2 trillion</text><text x="92.6" y="150.5">£1.4 trillion</text><text x="92.6" y="97.5">£1.6 trillion</text></g><g class="AxisGridLines"><path stroke="#ccc" d="M97.6 521.6H825"/><path stroke="#ddd" stroke-dasharray="3,2" d="M97.6 468.6H825M97.6 415.6H825M97.6 362.6H825M97.6 309.6H825M97.6 256.5H825M97.6 203.5H825M97.6 150.5H825M97.6 97.5H825"/></g><g class="AxisGridLines" stroke="#ddd" stroke-dasharray="3,2"><path d="M126.9 521.6V78.4M224.4 521.6V78.4M321.9 521.6V78.4M419.4 521.6V78.4M516.9 521.6V78.4M614.4 521.6V78.4M711.9 521.6V78.4M809.4 521.6V78.4"/></g></g><g clip-path="url(#a)"><g class="Lines"><g class="key-England_0"><path stroke="#3360a9" stroke-linecap="round" d="M98 521h287l1-1 1 1h5l1-1 1 1h1l1-1 1 1 1-1h1l1 1h7l1-1 1 1h2l1-1h1l1 1h3l1-1h88l1-1h2l1 1 1-1h15l1 1 1-1h40l1-1 1 1 1-1 1 1 1-1h22l1-1h14l1-1 1 1v-1h8l1-1 1 1 1-1h10l1-1h3l1-1h1l1 1 1-1h3l1-1h3l1-1h2l1-1h1l1 1h1l1-1 1-1h1l1-1h4l1-1h1l1-1h2l1-1h2l1-1h3l1-1h1l1-1h1l1-1h1l1-1 1-2 1-1h2l1-1h2l1-1h0l1 1 1-2 1-1h1l1-1h3l1-1 1-1 1-1h1l1-1h1l1 1 1-2 1-1 1-2h1l1-2 1-1h1l1-1 1-1 1 1 1-1 1-1 1-2 1-1 1 2 1-1 1-1 1-2 1-1 1-2 1-1 1-4 1-1h1v-1l1 5 1 5 1 5 1-3 1-2 1-2 1-2 1 2 1-4 1-1 1-1h1l1 3h1l1-2 1-4 1-2 1-3 1-2 1-1 1-3 1-8 1-7 1-2 1-1 1 4 1 5 1 2 1 1 1-3 1-3 1-2 1-3 1-2 1-5 1-4 1-4 1-2 1-2v-1l1-4 1-8 1-3 1-2 1-6 1-8 1-3 1-2 1-3 1-8 1-4 1-4 1-6 1-7 1-12 1 4 1 3 1-5 1-5 1-7 1-6 1 4 1 1 1-5 1-8 1-4 1-10 1-6 1-12 1-14 1-7 1-3 1 2 1-1 1-7 1-10 1-6 1-7 1-9v-10l1-11 1-12 1-9 1-7 1-13 1-8 1-12 1-10 1-10 1 2 1 18 1-9 1-5 1-4 1-6 1-14 1-10 1-8" fill="none" stroke-width="1.5"/></g></g></g></g><g class="SourcesFooter" fill="#777"><g class="clickable" fill="#777"><text font-size="12.6" x="15" y="567.9"><tspan x="15" y="567.88">Source: GDP in England (using BoE (2017))</tspan></text></g><text font-size="12.6" x="15" y="582.5"><tspan x="15" y="582.48">Note: Data refers to England until 1700 and the UK from then onwards.</tspan></text><text font-size="12.6" x="549.4" y="567.9"><tspan x="549.36" y="567.88"><a target="_blank" href="https://ourworldindata.org/economic-growth" fill="#777">OurWorldInData.org/economic-growth</a> • <a href="http://creativecommons.org/licenses/by-sa/4.0/deed.en_US" target="_blank" fill="#777">CC BY-SA</a></tspan></text></g></g></svg>

<svg xmlns="http://www.w3.org/2000/svg" version="1.1" style="font-family: 'Helvetica Neue', Helvetica, Arial, sans-serif; font-size: 18px; background-color: white; text-rendering: optimizeLegibility; -webkit-font-smoothing: antialiased;" width="850" height="600"><g class="ChartTab"><g class="HeaderView"><g opacity="0.8" transform="translate(770, 15) scale(0.31)"><a xmlns:xlink="http://www.w3.org/1999/xlink" xlink:href="https://ourworldindata.org" target="_blank"><g><rect x="0" y="0" fill="#1B2543" width="211.2" height="130.1"/><rect x="0" y="112.2" fill="#E63912" width="211.2" height="17.9"/><g><rect x="1.2" y="12.3" fill="none" width="210.2" height="99.2"/><path fill="#FFFFFF" d="M37.8,32.2c0,12.7-7.7,19.4-17.1,19.4c-9.7,0-16.6-7.5-16.6-18.7c0-11.7,7.3-19.3,17.1-19.3 C31.3,13.7,37.8,21.3,37.8,32.2z M9.2,32.8c0,7.9,4.3,14.9,11.8,14.9c7.5,0,11.8-6.9,11.8-15.3c0-7.3-3.8-14.9-11.8-14.9 C13.1,17.5,9.2,24.8,9.2,32.8z"/><path fill="#FFFFFF" d="M62.7,43.8c0,2.7,0.1,5.1,0.2,7.2h-4.3l-0.3-4.3h-0.1c-1.3,2.1-4,4.9-8.8,4.9c-4.2,0-9.1-2.3-9.1-11.6 V24.6h4.8v14.6c0,5,1.5,8.4,5.9,8.4c3.2,0,5.5-2.2,6.3-4.4c0.3-0.7,0.4-1.6,0.4-2.5V24.6h4.8V43.8z"/><path fill="#FFFFFF" d="M67.3,32.8c0-3.1-0.1-5.8-0.2-8.2h4.2l0.2,5.2h0.2c1.2-3.5,4.1-5.8,7.3-5.8c0.5,0,0.9,0.1,1.4,0.2v4.5 c-0.5-0.1-1-0.2-1.6-0.2c-3.4,0-5.8,2.6-6.5,6.2c-0.1,0.7-0.2,1.4-0.2,2.2V51h-4.8V32.8z"/><path fill="#FFFFFF" d="M95.4,51l-9.4-36.8h5l4.4,18.6c1.1,4.6,2.1,9.2,2.7,12.7h0.1c0.6-3.7,1.8-8,3-12.8l4.9-18.5h5l4.5,18.7 c1,4.4,2,8.7,2.6,12.6h0.1c0.8-4,1.8-8.1,3-12.7l4.9-18.5h4.9L120.6,51h-5L111,31.9c-1.1-4.7-1.9-8.3-2.4-12h-0.1 c-0.7,3.7-1.5,7.3-2.8,12L100.4,51H95.4z"/><path fill="#FFFFFF" d="M154.9,37.6c0,9.8-6.8,14-13.2,14c-7.2,0-12.7-5.2-12.7-13.6c0-8.8,5.8-14,13.1-14 C149.8,24,154.9,29.5,154.9,37.6z M133.9,37.9c0,5.8,3.3,10.1,8,10.1c4.6,0,8-4.3,8-10.3c0-4.5-2.2-10.1-7.9-10.1 C136.3,27.6,133.9,32.8,133.9,37.9z"/><path fill="#FFFFFF" d="M158.2,32.8c0-3.1-0.1-5.8-0.2-8.2h4.2l0.2,5.2h0.2c1.2-3.5,4.1-5.8,7.3-5.8c0.5,0,0.9,0.1,1.4,0.2v4.5 c-0.5-0.1-1-0.2-1.6-0.2c-3.4,0-5.8,2.6-6.5,6.2c-0.1,0.7-0.2,1.4-0.2,2.2V51h-4.8V32.8z"/><path fill="#FFFFFF" d="M173.5,12.3h4.8V51h-4.8V12.3z"/><path fill="#FFFFFF" d="M206.5,12.3v31.9c0,2.3,0.1,5,0.2,6.8h-4.3l-0.2-4.6H202c-1.5,2.9-4.7,5.2-9,5.2 c-6.4,0-11.3-5.4-11.3-13.4c-0.1-8.8,5.4-14.2,11.9-14.2c4,0,6.8,1.9,8,4h0.1V12.3H206.5z M201.7,35.4c0-0.6-0.1-1.4-0.2-2 c-0.7-3.1-3.3-5.6-6.9-5.6c-5,0-7.9,4.4-7.9,10.2c0,5.3,2.6,9.8,7.8,9.8c3.2,0,6.2-2.1,7.1-5.7c0.2-0.7,0.2-1.3,0.2-2.1V35.4z"/><path fill="#FFFFFF" d="M42.8,64c0.1,1.6-1.1,2.9-3.1,2.9c-1.7,0-2.9-1.3-2.9-2.9c0-1.7,1.3-3,3-3C41.7,61,42.8,62.3,42.8,64z M37.4,97.8V71.4h4.8v26.4H37.4z"/><path fill="#FFFFFF" d="M47.5,78.6c0-2.7-0.1-5-0.2-7.1h4.3l0.3,4.4h0.1c1.3-2.5,4.4-5,8.8-5c3.7,0,9.4,2.2,9.4,11.2v15.8h-4.8 V82.6c0-4.3-1.6-7.8-6.1-7.8c-3.2,0-5.6,2.2-6.5,4.9c-0.2,0.6-0.3,1.4-0.3,2.2v15.9h-4.8V78.6z"/><path fill="#FFFFFF" d="M84,61.6c2.9-0.4,6.3-0.8,10.1-0.8c6.8,0,11.7,1.6,14.9,4.6c3.3,3,5.2,7.3,5.2,13.2c0,6-1.9,10.9-5.3,14.3 c-3.4,3.4-9.1,5.3-16.3,5.3c-3.4,0-6.2-0.2-8.6-0.4V61.6z M88.8,94.1c1.2,0.2,3,0.3,4.8,0.3c10.2,0,15.7-5.7,15.7-15.6 c0.1-8.7-4.9-14.2-14.9-14.2c-2.5,0-4.3,0.2-5.6,0.5V94.1z"/><path fill="#FFFFFF" d="M132.1,97.8l-0.4-3.3h-0.2c-1.5,2.1-4.3,3.9-8.1,3.9c-5.4,0-8.1-3.8-8.1-7.6c0-6.4,5.7-9.9,15.9-9.8v-0.5 c0-2.2-0.6-6.1-6-6.1c-2.5,0-5,0.8-6.9,2l-1.1-3.2c2.2-1.4,5.4-2.3,8.7-2.3c8.1,0,10.1,5.5,10.1,10.8v9.9c0,2.3,0.1,4.5,0.4,6.3 H132.1z M131.4,84.4c-5.3-0.1-11.2,0.8-11.2,5.9c0,3.1,2.1,4.6,4.5,4.6c3.4,0,5.6-2.2,6.4-4.4c0.2-0.5,0.3-1,0.3-1.5V84.4z"/><path fill="#FFFFFF" d="M146.6,63.9v7.6h6.9v3.7h-6.9v14.2c0,3.3,0.9,5.1,3.6,5.1c1.3,0,2.2-0.2,2.8-0.3l0.2,3.6 c-0.9,0.4-2.4,0.7-4.3,0.7c-2.2,0-4-0.7-5.2-2c-1.4-1.4-1.9-3.8-1.9-6.9V75.1h-4.1v-3.7h4.1v-6.3L146.6,63.9z"/><path fill="#FFFFFF" d="M171.4,97.8l-0.4-3.3h-0.2c-1.5,2.1-4.3,3.9-8.1,3.9c-5.4,0-8.1-3.8-8.1-7.6c0-6.4,5.7-9.9,15.9-9.8v-0.5 c0-2.2-0.6-6.1-6-6.1c-2.5,0-5,0.8-6.9,2l-1.1-3.2c2.2-1.4,5.4-2.3,8.7-2.3c8.1,0,10.1,5.5,10.1,10.8v9.9c0,2.3,0.1,4.5,0.4,6.3 H171.4z M170.7,84.4c-5.3-0.1-11.2,0.8-11.2,5.9c0,3.1,2.1,4.6,4.5,4.6c3.4,0,5.6-2.2,6.4-4.4c0.2-0.5,0.3-1,0.3-1.5V84.4z"/></g></g></a></g><a href="https://ourworldindata.org/grapher/total-GDP-in-the-uk-since-1270" target="_blank"><text font-size="27.00" x="15.0" y="36.6" fill="#555"><tspan x="15" y="36.6">Total economic output in England since 1270, England</tspan></text></a><text font-size="14.40" x="15.0" y="55.5" fill="#666"><tspan x="15" y="55.519999999999996">Output is adjusted for inflation and measured in British Pounds in 2013 prices</tspan></text></g><g class="LineChart"><defs><clipPath id="boundsClip-315"><rect x="87.598" y="0" width="830" height="928.8000000000001"></rect></clipPath></defs><g class="AxisBoxView"><g class="HorizontalAxis"><text x="97.6" y="542.8000000000001" fill="#666" text-anchor="middle" font-size="16.2">1270</text><text x="224.4" y="542.8000000000001" fill="#666" text-anchor="middle" font-size="16.2">1400</text><text x="321.9" y="542.8000000000001" fill="#666" text-anchor="middle" font-size="16.2">1500</text><text x="419.4" y="542.8000000000001" fill="#666" text-anchor="middle" font-size="16.2">1600</text><text x="516.9" y="542.8000000000001" fill="#666" text-anchor="middle" font-size="16.2">1700</text><text x="614.4" y="542.8000000000001" fill="#666" text-anchor="middle" font-size="16.2">1800</text><text x="711.9" y="542.8000000000001" fill="#666" text-anchor="middle" font-size="16.2">1900</text><text x="825" y="542.8000000000001" fill="#666" text-anchor="middle" font-size="16.2">2016</text></g><g class="VerticalAxis"><text x="92.60" y="521.6" fill="#666" dominant-baseline="middle" text-anchor="end" font-size="16.2">£0</text><text x="92.60" y="468.6" fill="#666" dominant-baseline="middle" text-anchor="end" font-size="16.2">£200 billion</text><text x="92.60" y="415.6" fill="#666" dominant-baseline="middle" text-anchor="end" font-size="16.2">£400 billion</text><text x="92.60" y="362.6" fill="#666" dominant-baseline="middle" text-anchor="end" font-size="16.2">£600 billion</text><text x="92.60" y="309.6" fill="#666" dominant-baseline="middle" text-anchor="end" font-size="16.2">£800 billion</text><text x="92.60" y="256.5" fill="#666" dominant-baseline="middle" text-anchor="end" font-size="16.2">£1 trillion</text><text x="92.60" y="203.5" fill="#666" dominant-baseline="middle" text-anchor="end" font-size="16.2">£1.2 trillion</text><text x="92.60" y="150.5" fill="#666" dominant-baseline="middle" text-anchor="end" font-size="16.2">£1.4 trillion</text><text x="92.60" y="97.5" fill="#666" dominant-baseline="middle" text-anchor="end" font-size="16.2">£1.6 trillion</text></g><g class="AxisGridLines"><line x1="97.60" y1="521.6" x2="825.00" y2="521.6" stroke="#ccc"></line><line x1="97.60" y1="468.6" x2="825.00" y2="468.6" stroke="#ddd" stroke-dasharray="3,2"></line><line x1="97.60" y1="415.6" x2="825.00" y2="415.6" stroke="#ddd" stroke-dasharray="3,2"></line><line x1="97.60" y1="362.6" x2="825.00" y2="362.6" stroke="#ddd" stroke-dasharray="3,2"></line><line x1="97.60" y1="309.6" x2="825.00" y2="309.6" stroke="#ddd" stroke-dasharray="3,2"></line><line x1="97.60" y1="256.5" x2="825.00" y2="256.5" stroke="#ddd" stroke-dasharray="3,2"></line><line x1="97.60" y1="203.5" x2="825.00" y2="203.5" stroke="#ddd" stroke-dasharray="3,2"></line><line x1="97.60" y1="150.5" x2="825.00" y2="150.5" stroke="#ddd" stroke-dasharray="3,2"></line><line x1="97.60" y1="97.5" x2="825.00" y2="97.5" stroke="#ddd" stroke-dasharray="3,2"></line></g><g class="AxisGridLines"><line x1="126.9" y1="521.60" x2="126.9" y2="78.40" stroke="#ddd" stroke-dasharray="3,2"></line><line x1="224.4" y1="521.60" x2="224.4" y2="78.40" stroke="#ddd" stroke-dasharray="3,2"></line><line x1="321.9" y1="521.60" x2="321.9" y2="78.40" stroke="#ddd" stroke-dasharray="3,2"></line><line x1="419.4" y1="521.60" x2="419.4" y2="78.40" stroke="#ddd" stroke-dasharray="3,2"></line><line x1="516.9" y1="521.60" x2="516.9" y2="78.40" stroke="#ddd" stroke-dasharray="3,2"></line><line x1="614.4" y1="521.60" x2="614.4" y2="78.40" stroke="#ddd" stroke-dasharray="3,2"></line><line x1="711.9" y1="521.60" x2="711.9" y2="78.40" stroke="#ddd" stroke-dasharray="3,2"></line><line x1="809.4" y1="521.60" x2="809.4" y2="78.40" stroke="#ddd" stroke-dasharray="3,2"></line></g></g><g clip-path="url(#boundsClip-315)"><g class="Lines"><rect x="98" y="78" width="727" height="443" fill="rgba(255,255,255,0)" opacity="0"></rect><g class="key-England_0"><path stroke="#3360a9" stroke-linecap="round" d="M98 521L99 521L100 521L101 521L102 521L103 521L103 521L104 521L105 521L106 521L107 521L108 521L109 521L110 521L111 521L112 521L113 521L114 521L115 521L116 521L117 521L118 521L119 521L120 521L121 521L122 521L123 521L124 521L125 521L126 521L127 521L128 521L129 521L130 521L131 521L132 521L133 521L134 521L135 521L136 521L137 521L138 521L139 521L140 521L141 521L142 521L143 521L143 521L144 521L145 521L146 521L147 521L148 521L149 521L150 521L151 521L152 521L153 521L154 521L155 521L156 521L157 521L158 521L159 521L160 521L161 521L162 521L163 521L164 521L165 521L166 521L167 521L168 521L169 521L170 521L171 521L172 521L173 521L174 521L175 521L176 521L177 521L178 521L179 521L180 521L181 521L182 521L182 521L183 521L184 521L185 521L186 521L187 521L188 521L189 521L190 521L191 521L192 521L193 521L194 521L195 521L196 521L197 521L198 521L199 521L200 521L201 521L202 521L203 521L204 521L205 521L206 521L207 521L208 521L209 521L210 521L211 521L212 521L213 521L214 521L215 521L216 521L217 521L218 521L219 521L220 521L221 521L221 521L222 521L223 521L224 521L225 521L226 521L227 521L228 521L229 521L230 521L231 521L232 521L233 521L234 521L235 521L236 521L237 521L238 521L239 521L240 521L241 521L242 521L243 521L244 521L245 521L246 521L247 521L248 521L249 521L250 521L251 521L252 521L253 521L254 521L255 521L256 521L257 521L258 521L259 521L260 521L260 521L261 521L262 521L263 521L264 521L265 521L266 521L267 521L268 521L269 521L270 521L271 521L272 521L273 521L274 521L275 521L276 521L277 521L278 521L279 521L280 521L281 521L282 521L283 521L284 521L285 521L286 521L287 521L288 521L289 521L290 521L291 521L292 521L293 521L294 521L295 521L296 521L297 521L298 521L299 521L299 521L300 521L301 521L302 521L303 521L304 521L305 521L306 521L307 521L308 521L309 521L310 521L311 521L312 521L313 521L314 521L315 521L316 521L317 521L318 521L319 521L320 521L321 521L322 521L323 521L324 521L325 521L326 521L327 521L328 521L329 521L330 521L331 521L332 521L333 521L334 521L335 521L336 521L337 521L338 521L338 521L339 521L340 521L341 521L342 521L343 521L344 521L345 521L346 521L347 521L348 521L349 521L350 521L351 521L352 521L353 521L354 521L355 521L356 521L357 521L358 521L359 521L360 521L361 521L362 521L363 521L364 521L365 521L366 521L367 521L368 521L369 521L370 521L371 521L372 521L373 521L374 521L375 521L376 521L377 521L377 521L378 521L379 521L380 521L381 521L382 521L383 521L384 521L385 521L386 520L387 521L388 521L389 521L390 521L391 521L392 521L393 520L394 521L395 521L396 520L397 521L398 520L399 520L400 521L401 521L402 521L403 521L404 521L405 521L406 521L407 521L408 520L409 521L410 521L411 521L412 520L413 520L414 521L415 521L416 521L416 521L417 521L418 520L419 520L420 520L421 520L422 520L423 520L424 520L425 520L426 520L427 520L428 520L429 520L430 520L431 520L432 520L433 520L434 520L435 520L436 520L437 520L438 520L439 520L440 520L441 520L442 520L443 520L444 520L445 520L446 520L447 520L448 520L449 520L450 520L451 520L452 520L453 520L454 520L455 520L455 520L456 520L457 520L458 520L459 520L460 520L461 520L462 520L463 520L464 520L465 520L466 520L467 520L468 520L469 520L470 520L471 520L472 520L473 520L474 520L475 520L476 520L477 520L478 520L479 520L480 520L481 520L482 520L483 520L484 520L485 520L486 520L487 520L488 520L489 520L490 520L491 520L492 520L493 520L494 520L495 520L495 520L496 520L497 520L498 520L499 520L500 520L501 520L502 520L503 520L504 520L505 520L506 520L507 519L508 519L509 519L510 520L511 519L512 519L513 519L514 519L515 519L516 519L517 519L518 519L519 519L520 519L521 519L522 519L523 519L524 519L525 519L526 519L527 520L528 519L529 519L530 519L531 519L532 519L533 519L534 519L534 519L535 519L536 519L537 519L538 519L539 519L540 519L541 519L542 519L543 519L544 519L545 519L546 519L547 519L548 519L549 519L550 519L551 519L552 519L553 519L554 519L555 519L556 519L557 519L558 519L559 519L560 519L561 519L562 519L563 519L564 519L565 519L566 519L567 519L568 519L569 518L570 519L571 518L572 519L573 518L573 518L574 518L575 518L576 518L577 518L578 518L579 518L580 518L581 518L582 518L583 518L584 518L585 518L586 518L587 518L588 518L589 518L590 518L591 518L592 518L593 518L594 518L595 518L596 517L597 517L598 517L599 517L600 517L601 517L602 517L603 517L604 517L605 517L606 517L607 517L608 517L609 517L610 517L611 516L612 517L612 516L613 516L614 516L615 516L616 516L617 516L618 516L619 516L620 516L621 515L622 516L623 515L624 515L625 515L626 515L627 515L628 515L629 515L630 515L631 515L632 515L633 515L634 514L635 514L636 514L637 514L638 513L639 513L640 514L641 513L642 513L643 513L644 513L645 512L646 512L647 512L648 512L649 511L650 511L651 511L651 511L652 510L653 510L654 511L655 511L656 510L657 509L658 509L659 508L660 508L661 508L662 508L663 508L664 507L665 507L666 506L667 506L668 506L669 505L670 505L671 505L672 504L673 504L674 504L675 504L676 503L677 503L678 502L679 502L680 501L681 501L682 500L683 498L684 497L685 497L686 497L687 496L688 496L689 496L690 495L690 495L691 496L692 494L693 493L694 493L695 492L696 492L697 492L698 492L699 491L700 490L701 489L702 489L703 488L704 488L705 489L706 487L707 486L708 484L709 484L710 482L711 481L712 481L713 480L714 479L715 480L716 479L717 478L718 476L719 475L720 477L721 476L722 475L723 473L724 472L725 470L726 469L727 465L728 464L729 464L729 463L730 468L731 473L732 478L733 475L734 473L735 471L736 469L737 471L738 467L739 466L740 465L741 465L742 468L743 468L744 466L745 462L746 460L747 457L748 455L749 454L750 451L751 443L752 436L753 434L754 433L755 437L756 442L757 444L758 445L759 442L760 439L761 437L762 434L763 432L764 427L765 423L766 419L767 417L768 415L768 414L769 410L770 402L771 399L772 397L773 391L774 383L775 380L776 378L777 375L778 367L779 363L780 359L781 353L782 346L783 334L784 338L785 341L786 336L787 331L788 324L789 318L790 322L791 323L792 318L793 310L794 306L795 296L796 290L797 278L798 264L799 257L800 254L801 256L802 255L803 248L804 238L805 232L806 225L807 216L807 206L808 195L809 183L810 174L811 167L812 154L813 146L814 134L815 124L816 114L817 116L818 134L819 125L820 120L821 116L822 110L823 96L824 86L825 78" fill="none" stroke-width="1.5"></path></g></g></g></g><g style="fill: #777;" class="SourcesFooter"><g style="fill: #777;" class="clickable"><text font-size="12.60" x="15.0" y="567.9"><tspan x="15" y="567.88">Source: GDP in England (using BoE (2017))</tspan></text></g><text font-size="12.60" x="15.0" y="582.5"><tspan x="15" y="582.48">Note: Data refers to England until 1700 and the UK from then onwards.</tspan></text><text font-size="12.60" x="549.4" y="567.9"><tspan x="549.358" y="567.88"><a target='_blank' style='fill: #777;' href='https://ourworldindata.org/economic-growth'>OurWorldInData.org/economic-growth</a> • <a style="fill: #777;" href="http://creativecommons.org/licenses/by-sa/4.0/deed.en_US" target="_blank">CC BY-SA</a></tspan></text></g></g></svg>
